src/next/cmd/sc_graphicfilterrelief.svg

<svg height="16" width="16" xmlns="http://www.w3.org/2000/svg" xmlns:xlink="http://www.w3.org/1999/xlink"><filter id="a"><feGaussianBlur stdDeviation="2.0786429"/></filter><radialGradient id="b" cx="102.90909" cy="174.73729" gradientTransform="matrix(.91666667 0 0 .91635986 1.666668 15.877762)" gradientUnits="userSpaceOnUse" r="139.55859"><stop offset="0" stop-color="#b7b8b9"/><stop offset=".18851049" stop-color="#ececec"/><stop offset=".25718147" stop-color="#fafafa"/><stop offset=".30111277" stop-color="#fff"/><stop offset=".5313" stop-color="#fafafa"/><stop offset=".8449" stop-color="#ebecec"/><stop offset="1" stop-color="#e1e2e3"/></radialGradient><radialGradient id="c" cx="108" cy="128.54001" gradientTransform="matrix(.66326721 0 0 .66304521 18.89783 28.848649)" gradientUnits="userSpaceOnUse" r="139.55859"><stop offset="0" stop-color="#888a85"/><stop offset=".0072" stop-color="#8c8e89"/><stop offset=".0673" stop-color="#abaca9"/><stop offset=".1347" stop-color="#c5c6c4"/><stop offset=".2652576" stop-color="#dbdbda"/><stop offset=".37646064" stop-color="#ebebeb"/><stop offset=".48740286" stop-color="#f7f7f6"/><stop offset=".6324091" stop-color="#fdfdfd"/><stop offset="1" stop-color="#fff"/></radialGradient><g transform="scale(.125)"><path d="m3.999999 5.499997v119.000003h120.000001v-119.000003z" filter="url(#a)" opacity=".758364"/><path d="m8 8v112h112v-112z" fill="#fff"/><path d="m20 20v88h88v-88z" fill="url(#b)" stroke-width=".916667"/><path d="m36 36v56h56v-56z" fill="url(#c)" stroke-width=".663267"/><g fill="#2e3436" fill-rule="evenodd"><path d="m8 120 8-8h96v-96l8-8v112z"/><path d="m36 92 8-8h40v-40l8-8v56z"/></g></g></svg>

<?xml version="1.0" encoding="UTF-8" standalone="no"?>
<svg
   xmlns:dc="http://purl.org/dc/elements/1.1/"
   xmlns:cc="http://creativecommons.org/ns#"
   xmlns:rdf="http://www.w3.org/1999/02/22-rdf-syntax-ns#"
   xmlns:svg="http://www.w3.org/2000/svg"
   xmlns="http://www.w3.org/2000/svg"
   xmlns:sodipodi="http://sodipodi.sourceforge.net/DTD/sodipodi-0.dtd"
   xmlns:inkscape="http://www.inkscape.org/namespaces/inkscape"
   height="16"
   width="16"
   version="1.1"
   id="svg53"
   sodipodi:docname="sc_graphicfilterrelief.svg"
   inkscape:version="0.92.4 (unknown)"
   inkscape:export-filename="/home/rizmut/Dokumen/Rizmut/Github/libreoffice-style-karasa-jaga/build/next/cmd/sc_graphicfilterrelief.png"
   inkscape:export-xdpi="96"
   inkscape:export-ydpi="96">
  <metadata
     id="metadata59">
    <rdf:RDF>
      <cc:Work
         rdf:about="">
        <dc:format>image/svg+xml</dc:format>
        <dc:type
           rdf:resource="http://purl.org/dc/dcmitype/StillImage" />
        <dc:title></dc:title>
      </cc:Work>
    </rdf:RDF>
  </metadata>
  <defs
     id="defs57" />
  <sodipodi:namedview
     pagecolor="#ffffff"
     bordercolor="#666666"
     borderopacity="1"
     objecttolerance="10"
     gridtolerance="10"
     guidetolerance="10"
     inkscape:pageopacity="0"
     inkscape:pageshadow="2"
     inkscape:window-width="640"
     inkscape:window-height="480"
     id="namedview55"
     showgrid="true"
     inkscape:zoom="10.518213"
     inkscape:cx="21.795468"
     inkscape:cy="5.8834223"
     inkscape:current-layer="g878">
    <inkscape:grid
       type="xygrid"
       id="grid866" />
  </sodipodi:namedview>
  <filter
     id="a">
    <feGaussianBlur
       stdDeviation="2.0786429"
       id="feGaussianBlur2" />
  </filter>
  <radialGradient
     id="b"
     cx="102.90909"
     cy="174.73729"
     gradientTransform="matrix(0.91666667,0,0,0.91635986,1.666668,15.877762)"
     gradientUnits="userSpaceOnUse"
     r="139.55859">
    <stop
       offset="0"
       stop-color="#b7b8b9"
       id="stop5" />
    <stop
       offset=".18851049"
       stop-color="#ececec"
       id="stop7" />
    <stop
       offset=".25718147"
       stop-color="#fafafa"
       id="stop9" />
    <stop
       offset=".30111277"
       stop-color="#fff"
       id="stop11" />
    <stop
       offset=".5313"
       stop-color="#fafafa"
       id="stop13" />
    <stop
       offset=".8449"
       stop-color="#ebecec"
       id="stop15" />
    <stop
       offset="1"
       stop-color="#e1e2e3"
       id="stop17" />
  </radialGradient>
  <radialGradient
     id="c"
     cx="108"
     cy="128.54001"
     gradientTransform="matrix(0.66326721,0,0,0.66304521,18.89783,28.848649)"
     gradientUnits="userSpaceOnUse"
     r="139.55859">
    <stop
       offset="0"
       stop-color="#888a85"
       id="stop20" />
    <stop
       offset=".0072"
       stop-color="#8c8e89"
       id="stop22" />
    <stop
       offset=".0673"
       stop-color="#abaca9"
       id="stop24" />
    <stop
       offset=".1347"
       stop-color="#c5c6c4"
       id="stop26" />
    <stop
       offset=".2652576"
       stop-color="#dbdbda"
       id="stop28" />
    <stop
       offset=".37646064"
       stop-color="#ebebeb"
       id="stop30" />
    <stop
       offset=".48740286"
       stop-color="#f7f7f6"
       id="stop32" />
    <stop
       offset=".6324091"
       stop-color="#fdfdfd"
       id="stop34" />
    <stop
       offset="1"
       stop-color="#fff"
       id="stop36" />
  </radialGradient>
  <g
     id="g878"
     transform="scale(0.125)">
    <path
       id="path39"
       d="M 3.999999,5.499997 V 124.5 H 124 V 5.499997 Z"
       inkscape:connector-curvature="0"
       style="opacity:0.75836403;filter:url(#a)" />
    <path
       id="path41"
       d="M 8,8 V 120 H 120 V 8 Z"
       inkscape:connector-curvature="0"
       style="fill:#ffffff" />
    <path
       id="path43"
       d="m 20,20 v 88 h 88 V 20 Z"
       inkscape:connector-curvature="0"
       style="fill:url(#b);stroke-width:0.91666698" />
    <path
       id="path45"
       d="M 36,36 V 92 H 92 V 36 Z"
       inkscape:connector-curvature="0"
       style="fill:url(#c);stroke-width:0.66326702" />
    <g
       id="g51"
       style="fill:#2e3436;fill-rule:evenodd">
      <path
         id="path47"
         d="m 8,120 8,-8 h 96 V 16 l 8,-8 v 112 z"
         inkscape:connector-curvature="0" />
      <path
         id="path49"
         d="m 36,92 8,-8 H 84 V 44 l 8,-8 v 56 z"
         inkscape:connector-curvature="0" />
    </g>
  </g>
</svg>
